X: 391
T: Valse No. 3	 Op. 64
C: F. Chopin
%%abc-version 2.0
%%abcx-abcm2ps-target-version 5.9.1 (29 Sep 2008)
%%abc-creator hum2abc beta
%%abcx-conversion-date 2021/10/03 11:24:00
%%abc-edited-by Emilia Ziętek
%%abc-edited-by Mateusz Mrugas
%%abcx-initial-encoding-date 2018-08-22
%%humdrum-veritas 755303385
%%humdrum-veritas-data 669949537
%%linebreak <none>
%%barnumbers 0
L: 1/4
M: 3/4
N: Derived from 064-1a-BH-003.krn
P: Trois Valses pour le Piano
Q: "Moderato."
%%staves {1 2}
V: 1 clef=treble
V: 2 clef=bass
K: Ab
[V:1] c/G/A/F/E- | 
[V:2] A,,[CA,E,][CA,E,] | 
[V:1] E/A/c/d/f- | 
[V:2] E,,[CA,E,][CA,E,] | 
[V:1] f/=d/f/e/c'- | 
[V:2] A,,[CA,E,][CA,E,] | 
[V:1] c'/g/a/=d/e/=e/ | 
[V:2] E,,[CA,E,][CA,E,] | 
[V:1] f/=e/_e/=d/_d | 
[V:2] B,,[DG,E,][DG,E,] | 
[V:1] c/e/d/c/B | 
[V:2] E,,[DG,E,][DG,E,] | 
[V:1] f/=e/_e/=d/_d | 
[V:2] B,,[DG,E,][DG,E,] | 
[V:1] =B/_d/c/B/_B | 
[V:2] =E,,[CG,C,][CG,C,] | 
[V:1] A/=E/F/D/C- | 
[V:2] F,,[A,C,][A,C,] | 
[V:1] C/F/A/B/d- | 
[V:2] C,,[A,C,][A,C,] | 
[V:1] d/=B/d/c/a- | 
[V:2] F,,[A,C,][A,C,] | 
[V:1] a/g/f/c/=d/e/ | 
[V:2] A,,[ECF,][ECF,] | 
[V:1] .B/g/e'/=d'/f/e/ | 
[V:2] B,,,[EG,][K:clef=treble][GB,] | 
[V:1] c'/b/=d/c/a/g/ | 
[V:2] [BE][GB,][EG,][K:clef=bass] | 
[V:1] B/=A/_A/A/g/f/ | 
[V:2] B,,[=DB,F,][DB,F,] | 
[V:1] A/B/G/_d/f/e/ | 
[V:2] E,[EB,][_DB,E,] | 
[V:1] c/G/A/F/E- | 
[V:2] A,,[CA,E,][CA,E,] | 
[V:1] E/A/c/d/f- | 
[V:2] E,,[CA,E,][CA,E,] | 
[V:1] f/=d/f/e/c'- | 
[V:2] A,,[CA,E,][CA,E,] | 
[V:1] c'/g/a/=d/e/=e/ | 
[V:2] E,,[CA,E,][CA,E,] | 
[V:1] f/=e/_e/=d/_d | 
[V:2] B,,[DG,E,][DG,E,] | 
[V:1] c/e/d/c/B | 
[V:2] E,,[DG,E,][DG,E,] | 
[V:1] f/=e/_e/=d/_d | 
[V:2] B,,[DG,E,][DG,E,] | 
[V:1] =B/d/c/B/_B | 
[V:2] =E,,[CG,C,][CG,C,] | 
[V:1] A/=E/F/D/C- | 
[V:2] F,,[A,C,][A,C,] | 
[V:1] C/F/A/B/d- | 
[V:2] C,,[A,C,][A,C,] | 
[V:1] d/=B/d/c/a- | 
[V:2] F,,[A,C,][A,C,] | 
[V:1] a/g/f/c/=d/e/ | 
[V:2] A,,[ECF,][ECF,] | 
[V:1] B/g/e'/=d'/f/e/ | 
[V:2] B,,,[EG,][GB,] | 
[V:1] c'/b/=d/c/a/g/ | 
[V:2] [K:clef=treble][BE][GB,][EG,][K:clef=bass] | 
[V:1] B/=A/_A/A/g/f/ | 
[V:2] B,,[=DB,F,][DB,F,] | 
[V:1] G/B/=d/f/e/d/ | 
[V:2] x[GEB,]z & E,2x | 
[V:1] _d/=A/B/_G/F- | 
[V:2] B,,[DB,][DB,] | 
[V:1] F/B/d/e/_g- | 
[V:2] F,,[DB,F,][DB,F,] | 
[V:1] g/=e/_g/f/d'- | 
[V:2] B,,[DB,F,][DB,F,] | 
[V:1] d'/=a/b/=e/f/_a/ | 
[V:2] F,,[DB,F,][DB,F,] | 
[V:1] =g/_g/f/=e/_e | 
[V:2] C,[E=A,F,][EA,F,] | 
[V:1] =d/f/_e/_d/c | 
[V:2] F,,[E=A,F,][EA,F,] | 
[V:1] a/g/_g/f/=e- | 
[V:2] C,[E=A,F,][EA,F,] | 
[V:1] =e/_g/f/=e/_e | 
[V:2] F,,[E=A,F,][EA,F,] | 
[V:1] d/=A/B/_G/!accent!D- | 
[V:2] _G,,[B,D,][B,D,] | 
[V:1] D/G/B/_c/e- | 
[V:2] D,,[B,D,][B,D,] | 
[V:1] e/=c/e/d/b- | 
[V:2] _G,,[B,D,][B,D,] | 
[V:1] b/f/_g/c/d/=d/ | 
[V:2] D,,[B,D,][B,D,] | 
[V:1] e/=d/_d/c/_c | 
[V:2] A,,[_CF,D,][CF,D,] | 
[V:1] B/d/_c/B/!accent!A | 
[V:2] D,,[_CF,D,][CF,D,] | 
[V:1] f/e/=d/_d/=c- | 
[V:2] A,,[_CF,D,][CF,D,] | 
[V:1] c/e/d/=c/_c | 
[V:2] D,,[_CF,D,][CF,D,] | 
[V:1] BF/G/A/=D/ | 
[V:2] =D,[B,A,]B,, | 
[V:1] E/A/G/c/B/a/ | 
[V:2] G,[EB,]z | 
[V:1] g/a/e/f/g/=d/ | 
[V:2] B,,,[=DB,A,][DB,A,] | 
[V:1] e/f/c/=d/e/B/ | 
[V:2] B,,[EB,G,][EB,G,] | 
[V:1] c/=d/A/B/c/F/ | 
[V:2] B,,[=DB,F,][DB,A,] | 
[V:1] G/A/G/c/B/a/ | 
[V:2] B,,[EB,G,]z | 
[V:1] g/a/e/f/g/=d/ | 
[V:2] B,,,[K:clef=treble][A=DB,][ADB,][K:clef=bass] | 
[V:1] e/f/c/=d/e/B/ | 
[V:2] B,,[K:clef=treble][GEB,][GEB,][K:clef=bass] | 
[V:1] c/=d/=A/B/c/d/ | 
[V:2] B,,[E_G,][_G=A,] | 
[V:1] =A/B/c/=d/A/B/ | 
[V:2] [E_G,][_G=A,][EG,][K:clef=treble] | 
[V:1] !trill!c3- | 
[V:2] [_GE=A,][FEA,][GEA,] | 
[V:1] !trill!c3{/=Bc} | 
[V:2] [FE=A,][_GEA,][FEA,] | 
[V:1] =d/e/_c/_d/=d/e/ | 
[V:2] z[F_A,][AF_C] | 
[V:1] _c/_d/=d/e/=B/^c/ | 
[V:2] [FA,][AF_C][FA,] | 
[V:1] !trill!=d3- | 
[V:2] [AF=B,][GFB,][AFB,] | 
[V:1] !trill!d3{/c=d} | 
[V:2] [GF=B,][AFB,][K:clef=bass]=B,, | 
[V:1] f2e | 
[V:2] C,[EG,]z | 
[V:1] =d/=B/c/F/G/{/_B}A/ | 
[V:2] F,,[=DCA,]z | 
[V:1] G>=DG | 
[V:2] G,,[CG,=D,][CG,D,] | 
[V:1] =DGa/g/ | 
[V:2] G,,[=B,G,=D,]F,, | 
[V:1] f2e | 
[V:2] E,,[CG,C,]z | 
[V:1] =d/=B/c/F/G/{/_B}A/ | 
[V:2] F,,[CA,=D,][CA,D,] | 
[V:1] G>=DG | 
[V:2] G,,[CG,=D,][CG,D,] | 
[V:1] =DG2 ||  
[V:2] G,,[=B,G,D,][B,G,D,] ||  
[V:1]  [K:C] G3- & [ECG,][ECG,][ECG,] | 
[V:2]  [K:C] {/C,,}C,>G,,C, | 
[V:1] G3- & [ECG,][ECG,][ECG,] | 
[V:2] G,,C,2- | 
[V:1] G3- & [ECG,][ECG,][ECG,] | 
[V:2] C,>G,,C, | 
[V:1] G3- & [ECG,][ECG,][ECG,] | 
[V:2] C,>G,,C,- | 
[V:1] G3 & [FDG,][FDG,][FDG,] | 
[V:2] C,/=B,,/A,,/B,,/A,,/G,,/ | 
[V:1] z[GCG,][GCG,] | 
[V:2] E,3- | 
[V:1] [GFB,G,][GFCG,][GFDG,] | 
[V:2] E,/D,/C,/B,,/A,,/G,,/ | 
[V:1] z[GE][GE] | 
[V:2] G,C2- | 
[V:1] [GD][GD][GE]- | 
[V:2] C/B,/A,/B,/C/A,/ | 
[V:1] e2d/c/ & [GE][GE]E- | 
[V:2] G,/A,/G,/E,/C,/A,/ | 
[V:1] cx.A & x2E/^F/ | 
[V:2] G,/A,/G,/E,/C,/D,/ | 
[V:1] [BGB,][DB,][_BG_B,] | 
[V:2] G,,D,2- | 
[V:1] [AGA,][AGEA,][AA,] | 
[V:2] D,>^C,_B,,/A,,/ | 
[V:1] z[ADA,][ADA,] | 
[V:2] F,3- | 
[V:1] [AG^CA,][AGDA,][AGEA,] | 
[V:2] F,/E,/D,/^C,/_B,,/A,,/ | 
[V:1] xf2 & z[AF][AF] | 
[V:2] A,D2- | 
[V:1] e2f3//d// & z[AG]F- | 
[V:2] D/^C/B,/C/D/_B,/ | 
[V:1] f2c & F[FD][FD] | 
[V:2] A,/_B,/A,/F,/D,/_A,/ | 
[V:1] B2G & z[FB,][B,F] | 
[V:2] G,/=A,/G,/D,/E,/G,,/ | 
[V:1] z[GEC][cEC] | 
[V:2] C,zz | 
[V:1] z[c_BE][cBE]- | 
[V:2] C>G,C | 
[V:1] [cBE]{/_e}[_d_BE][cBE] | 
[V:2] G,C2 | 
[V:1] z[c-_A][cA] | 
[V:2] F,F2 | 
[V:1] z[c-_AF][cAF] | 
[V:2] _E_D/C/C | 
[V:1] z[c_BE][cBE] | 
[V:2] C>G,C | 
[V:1] [c_BE]{/_e}[_dBE][cBE] | 
[V:2] G,C2 | 
[V:1] z[c_AF][cAF] | 
[V:2] F,_A,/C/_E/_D/ | 
[V:1] z[c_AF][_BA] | 
[V:2] C/G,/_A,/_B,/C/=D/ | 
[V:1] z[_e_dG][edG] | 
[V:2] _E>_B,E | 
[V:1] [_e_dG]{/_g}[_fdG][edG] | 
[V:2] _B,_E2 | 
[V:1] z[_e_c][ec] | 
[V:2] _A,_A2 | 
[V:1] [_e_c][ec_A][ecA] | 
[V:2] _G_F/_E/E | 
[V:1] z[_e_dG][edG] | 
[V:2] _E>_B,E | 
[V:1] [_e_dG]{/_g}[_fdG][edG] | 
[V:2] _B,_E2 | 
[V:1] [_ecF][=d_BF][_dB_F] | 
[V:2] =A,C/_B,/=F,/G,/ | 
[V:1] [c_A_E][_cA__E][_B_E_D] ||  
[V:2] _B,/_A,/=E,/F,/A,/G,/ ||  
[V:1]  [K:Ab] {/[EC]} c/G/A/F/!accent!E- | 
[V:2]  [K:Ab] A,,[CA,E,][CA,E,] | 
[V:1] E/A/c/d/f- | 
[V:2] E,,[CA,E,][CA,E,] | 
[V:1] f/=d/f/e/c'- | 
[V:2] A,,[CA,E,][CA,E,] | 
[V:1] c'/g/a/=d/e/=e/ | 
[V:2] E,,[CA,E,][CA,E,] | 
[V:1] f/=e/_e/=d/_d | 
[V:2] B,,[DG,E,][DG,E,] | 
[V:1] c/e/d/c/B | 
[V:2] E,,[DG,E,][DG,E,] | 
[V:1] f/=e/_e/=d/_d | 
[V:2] B,,[DG,E,][DG,E,] | 
[V:1] =B/_d/c/B/_B | 
[V:2] =E,,[CG,C,][CG,C,] | 
[V:1] A/=E/F/D/C- | 
[V:2] F,,[A,C,][A,C,] | 
[V:1] C/F/A/B/d- | 
[V:2] C,,[A,C,][A,C,] | 
[V:1] d/=B/d/c/a- | 
[V:2] F,,[A,C,][A,C,] | 
[V:1] a/g/f/c/=d/e/ | 
[V:2] A,,[ECF,][ECF,] | 
[V:1] B/g/e'/=d'/f/e/ | 
[V:2] B,,,[EG,][GB,][K:clef=treble] | 
[V:1] c'/b/=d/c/a/g/ | 
[V:2] [BE][GB,][EG,][K:clef=bass] | 
[V:1] B/=A/_A/A/g/f/ | 
[V:2] B,,[=DB,F,][DB,F,] | 
[V:1] A/B/G/_d/f/e/ | 
[V:2] E,[EB,][_DB,E,] | 
[V:1] c/G/A/F/E- | 
[V:2] A,,[CA,E,][CA,E,] | 
[V:1] E/A/c/d/f- | 
[V:2] E,,[CA,E,][CA,E,] | 
[V:1] f/=d/f/e/c'- | 
[V:2] A,,[CA,E,][CA,E,] | 
[V:1] c'/g/a/=d/e/=e/ | 
[V:2] E,,[CA,E,][CA,E,] | 
[V:1] f/=e/_e/=d/_d | 
[V:2] B,,[DG,E,][DG,E,] | 
[V:1] c/e/d/c/B | 
[V:2] E,,[DG,E,][DG,E,] | 
[V:1] f/=e/_e/=d/_d | 
[V:2] B,,[DG,E,][DG,E,] | 
[V:1] =B/d/c/B/_B ||  
[V:2] =E,,[G,C,][G,C,] ||  
[V:1]  [K:E] G/D/E/C/!accent!B,- | 
[V:2]  [K:E] E,,[G,B,,][G,B,,] | 
[V:1] B,/F/A/c/B- | 
[V:2] D,,[A,B,,][A,B,,] | 
[V:1] B/^^F/A/G/=d- | 
[V:2] E,,[G,B,,][G,B,,] | 
[V:1] d/^B/c/^^F/G/^^G/ | 
[V:2] ^E,,[B,C,][B,C,] | 
[V:1] ^A/^E/F/D/!accent!C- | 
[V:2] F,,[^A,C,][A,C,] | 
[V:1] C/G/B/d/c- | 
[V:2] ^E,,[B,C,][B,C,] | 
[V:1] c/^^G/B/^A/e ||  
[V:2] F,,[^A,C,][A,C,] ||  
[V:1]  [K:Ab] _f/=d/e/E/B/e/ | 
[V:2]  [K:Ab] G,,[DE,]z | 
[V:1] d'e/d'/c'/=b/ | 
[V:2] E,,[GED][GED] | 
[V:1] c'/g/b/a/g/=e/ | 
[V:2] A,,[AC][=EB,C,] | 
[V:1] g/^f/=f/c/=d/B/ | 
[V:2] D,[FB,A,][DG,E,] | 
[V:1] c/f/e/d/e/f/ | 
[V:2] A,,[CE,]=A,, | 
[V:1] e/d'/ z/ d'/c'/=b/ | 
[V:2] B,,[DG,E,]E,, | 
[V:1] c'/g/b/a/a/_f/ | 
[V:2] A,,[CA,E,][CA,_F,C,] | 
[V:1] _f/c/e/d/d/_F/ | 
[V:2] x[D__B,_F,]x & D,2z | 
[V:1] d/A/__B/_c/d/G/ | 
[V:2] zz[D_B,E,] | 
[V:1] AE/c/A/f/ | 
[V:2] A,,[CE,][CE,] | 
[V:1] e/=A/B/c/d/G/ | 
[V:2] A,,[DG,E,][DB,E,] | 
[V:1] _A/c/E/e/c/a/ | 
[V:2] A,,[CE,][CE,] | 
[V:1] f/=A/B/c/d/G/ | 
[V:2] A,,[DE,][DE,] | 
[V:1] _A/B/d/c/d/f/ | 
[V:2] A,,[CE,][ECA,] | 
[V:1] e/g/b/a/b/d'/ | 
[V:2] [ACA,][ECA,][CA,E,] | 
[V:1] c'/d'/f'/e'/g'/b'/ | 
[V:2] A,,[CE,][ECA,] | 
[V:1] a'/b'/d''/c''/d''/f''/ | 
[V:2] [ACA,][ECA,][CA,E,]- | 
[V:1] e''/c''/g'/b'/a'/f'/ | 
[V:2] [CA,E,][ECA,E,][ECA,E,]- | 
[V:1] =d'/f'/e'/_d'/=a/c'/ | 
[V:2] [ECA,E,][EDG,E,][EDG,E,] | 
[V:1] b/_a/g/b/a/f/ | 
[V:2] z[ECA,E,][ECA,E,] | 
[V:1] =d/f/e/_d/=A/c/ | 
[V:2] z[EDG,E,][EDG,E,]- | 
[V:1] B/_A/g/b/a/f/ | 
[V:2] [EDG,E,][ECA,E,][ECA,E,]- | 
[V:1] =d/f/e/_d/=A/c/ | 
[V:2] [ECA,E,][EDG,E,][EDG,E,]- | 
[V:1] B/_A/g/b/a/f/ | 
[V:2] [EDG,E,][ECA,E,][ECA,E,]- | 
[V:1] =d/f/e/_d/=A/c/ | 
[V:2] [ECA,E,][EDG,E,][EDG,E,] | 
[V:1] B/G/_A/B/c/d/ | 
[V:2] A,,zz[K:clef=treble] | 
[V:1] e/f/g/a/b/c'/ | 
[V:2] [AC]zz | 
[V:1] d'/e'/f'/g'/a'/=a'/ | 
[V:2] z3 | 
[V:1] b'/=b'/c''/d''/=d''/f''/ | 
[V:2] z3 | 
[V:1] e''/c''/a'/e'/c'/a/ | 
[V:2] z3[K:clef=bass] | 
[V:1] e/c/A/E/A,/E,/ | 
[V:2] z3 | 
[V:1] z3 |]  
[V:2] !accent!!fermata!A,,,3 |]
